X: 56
T: Staten Island
B: begged borrowed and stolen
M:4/4
L:1/8
R: hornpipe
Q: 1/4=100
K:Dmajor
V:1 
AG|:"D"FDFG A2AB|defd edBA|"G"B2GB "D"A2FA|"A"G2E2 EGFE|
 "D"DEFG A2AB|defd edBc|"G"d2d2 "A"efge|1 "D"f2d2 d2AG:|2 "D"f2d2 d2fg||
 |:"D"a2fa g2eg|f2df edAB|"C"=c2c2 efge|=cdef g2fg|
 "D"a2fa g2eg|"Bm"f2df edB^c|"G"d2d2 "A"efge|1 "D"f2d2 d2fg:|2 "D"f2d2 d2||
% abcbook-tune_id 62828a3aed26097871928af1


% abcbook-boost 0
% abcbook-tablature 
% abcbook-transpose 
% abcbook-lastupdated 1652725431086
% abcbook-soundfonts 
% abcbook-repeats 3
% abc-sessionorg_id 1285
% abc-sessionorg_setting 0
% abc-sessionorg_setting_id 24844
% abc-boost 0

